X: 1
T: Ptarmigan Flushed, The
M: 12/8
L: 1/8
R: slide
K: Gmaj
|: E | 
D2 G G2 B def g2 B | D2 G G2 d cAG FGE |
D2 G G2 B dd/e/f g2 B |1 DG/G/G Bdd cAF G2 :|
2 D2 G B2 d cAF GB/c/d ||
|: g2 a f2 a gfe d2 B | e2 f gdB c2 A F2 A |
[1 g2 a f2 a gg/f/e d2 B | e2 f gdB cAF G2 d :|
[2 B2 d c2 e def g3 | D2 G B2 d cAF G2 ||
